icons/star_state_capital.svg

<svg xmlns="http://www.w3.org/2000/svg" width="33" height="33">
 <path style="mix-blend-mode:normal;fill:#444;fill-opacity:1;stroke:#fff;stroke-width:2;stroke-linecap:round;stroke-linejoin:round;stroke-miterlimit:4;stroke-dasharray:none;stroke-opacity:1;paint-order:stroke markers fill;stop-color:#000" d="M 16.5,1.7391396 20.299572,12.275865 31.494726,12.633446 22.647837,19.503081 25.76725,30.260804 16.5,23.969746 7.2327493,30.260803 10.352163,19.503081 1.5052741,12.633445 12.700428,12.275865 Z"/>
</svg>

<svg xmlns="http://www.w3.org/2000/svg" width="33" height="33"><path style="mix-blend-mode:normal;fill:#444;fill-opacity:1;stroke:#fff;stroke-width:2;stroke-linecap:round;stroke-linejoin:round;stroke-miterlimit:4;stroke-dasharray:none;stroke-opacity:1;paint-order:stroke markers fill;stop-color:#000" d="m16.5 1.74 3.8 10.536 11.195.357-8.847 6.87 3.12 10.758L16.5 23.97l-9.267 6.29 3.12-10.757-8.848-6.87 11.195-.357Z"/></svg>
